creative/fonts/polwgo/uni0036.svg

<svg width="500" height="850" xmlns="http://www.w3.org/2000/svg">
    <path d="M475 550v-50h-50L325 600v50h50zM125 650h50v-50L75 500H25v50zM25 300v50h50l100-100v-50h-50zm350-100h-50v50l100 100h50v-50z"/>
    <path d="M375 650H125v-50h250zM25 550V300h50v250zm100-350h250v50H125z"/>
    <path d="M 125 300 L 125 350 L 125 500 L 125 550 L 325 550 L 375 550 L 375 500 L 375 350 L 375 300 L 175 300 L 125 300 z M 175 350 L 325 350 L 325 500 L 175 500 L 175 350 z "/>
</svg>

<svg width="500" height="850" xmlns="http://www.w3.org/2000/svg">
    <path
        d="M 125 200 L 25 300 L 25 350 L 25 550 L 125 650 L 375 650 L 475 550 L 475 500 L 425 500 L 325 600 L 175 600 L 75 500 L 75 350 L 175 250 L 325 250 L 425 350 L 475 350 L 475 300 L 375 200 L 325 200 L 125 200 z " />
    <path
        d="M 125 300 L 125 350 L 125 500 L 125 550 L 325 550 L 375 550 L 375 500 L 375 350 L 375 300 L 175 300 L 125 300 z M 175 350 L 325 350 L 325 500 L 175 500 L 175 350 z " />
</svg>
